src/assets/svg/icons/fa/nuevos/classic/duotone/grid-5 classic duotone.svg

<svg xmlns="http://www.w3.org/2000/svg" viewBox="0 0 448 512"><!--! Font Awesome Pro 6.4.0 by @fontawesome - https://fontawesome.com License - https://fontawesome.com/license (Commercial License) Copyright 2023 Fonticons, Inc. --><defs><style>.fa-secondary{opacity:.4}</style></defs><path class="fa-primary" d="M0 48c0-8.8 7.2-16 16-16H48c8.8 0 16 7.2 16 16V80c0 8.8-7.2 16-16 16H16C7.2 96 0 88.8 0 80V48zM0 240c0-8.8 7.2-16 16-16H48c8.8 0 16 7.2 16 16v32c0 8.8-7.2 16-16 16H16c-8.8 0-16-7.2-16-16V240zM16 416H48c8.8 0 16 7.2 16 16v32c0 8.8-7.2 16-16 16H16c-8.8 0-16-7.2-16-16V432c0-8.8 7.2-16 16-16zM96 144c0-8.8 7.2-16 16-16h32c8.8 0 16 7.2 16 16v32c0 8.8-7.2 16-16 16H112c-8.8 0-16-7.2-16-16V144zm16 176h32c8.8 0 16 7.2 16 16v32c0 8.8-7.2 16-16 16H112c-8.8 0-16-7.2-16-16V336c0-8.8 7.2-16 16-16zM192 48c0-8.8 7.2-16 16-16h32c8.8 0 16 7.2 16 16V80c0 8.8-7.2 16-16 16H208c-8.8 0-16-7.2-16-16V48zm16 176h32c8.8 0 16 7.2 16 16v32c0 8.8-7.2 16-16 16H208c-8.8 0-16-7.2-16-16V240c0-8.8 7.2-16 16-16zM192 432c0-8.8 7.2-16 16-16h32c8.8 0 16 7.2 16 16v32c0 8.8-7.2 16-16 16H208c-8.8 0-16-7.2-16-16V432zM304 128h32c8.8 0 16 7.2 16 16v32c0 8.8-7.2 16-16 16H304c-8.8 0-16-7.2-16-16V144c0-8.8 7.2-16 16-16zM288 336c0-8.8 7.2-16 16-16h32c8.8 0 16 7.2 16 16v32c0 8.8-7.2 16-16 16H304c-8.8 0-16-7.2-16-16V336zM400 32h32c8.8 0 16 7.2 16 16V80c0 8.8-7.2 16-16 16H400c-8.8 0-16-7.2-16-16V48c0-8.8 7.2-16 16-16zM384 240c0-8.8 7.2-16 16-16h32c8.8 0 16 7.2 16 16v32c0 8.8-7.2 16-16 16H400c-8.8 0-16-7.2-16-16V240zm16 176h32c8.8 0 16 7.2 16 16v32c0 8.8-7.2 16-16 16H400c-8.8 0-16-7.2-16-16V432c0-8.8 7.2-16 16-16z"/><path class="fa-secondary" d="M96 48c0-8.8 7.2-16 16-16h32c8.8 0 16 7.2 16 16V80c0 8.8-7.2 16-16 16H112c-8.8 0-16-7.2-16-16V48zM16 128H48c8.8 0 16 7.2 16 16v32c0 8.8-7.2 16-16 16H16c-8.8 0-16-7.2-16-16V144c0-8.8 7.2-16 16-16zm0 192H48c8.8 0 16 7.2 16 16v32c0 8.8-7.2 16-16 16H16c-8.8 0-16-7.2-16-16V336c0-8.8 7.2-16 16-16zm96-96h32c8.8 0 16 7.2 16 16v32c0 8.8-7.2 16-16 16H112c-8.8 0-16-7.2-16-16V240c0-8.8 7.2-16 16-16zM96 432c0-8.8 7.2-16 16-16h32c8.8 0 16 7.2 16 16v32c0 8.8-7.2 16-16 16H112c-8.8 0-16-7.2-16-16V432zM208 128h32c8.8 0 16 7.2 16 16v32c0 8.8-7.2 16-16 16H208c-8.8 0-16-7.2-16-16V144c0-8.8 7.2-16 16-16zM192 336c0-8.8 7.2-16 16-16h32c8.8 0 16 7.2 16 16v32c0 8.8-7.2 16-16 16H208c-8.8 0-16-7.2-16-16V336zM304 32h32c8.8 0 16 7.2 16 16V80c0 8.8-7.2 16-16 16H304c-8.8 0-16-7.2-16-16V48c0-8.8 7.2-16 16-16zM288 240c0-8.8 7.2-16 16-16h32c8.8 0 16 7.2 16 16v32c0 8.8-7.2 16-16 16H304c-8.8 0-16-7.2-16-16V240zm16 176h32c8.8 0 16 7.2 16 16v32c0 8.8-7.2 16-16 16H304c-8.8 0-16-7.2-16-16V432c0-8.8 7.2-16 16-16zm80-272c0-8.8 7.2-16 16-16h32c8.8 0 16 7.2 16 16v32c0 8.8-7.2 16-16 16H400c-8.8 0-16-7.2-16-16V144zm16 176h32c8.8 0 16 7.2 16 16v32c0 8.8-7.2 16-16 16H400c-8.8 0-16-7.2-16-16V336c0-8.8 7.2-16 16-16z"/></svg>

<svg xmlns="http://www.w3.org/2000/svg" viewBox="0 0 448 512"><defs><style>.fa-secondary{opacity:.4}</style></defs><path class="fa-primary" d="M0 48C0 39.16 7.164 32 16 32H48C56.84 32 64 39.16 64 48V80C64 88.84 56.84 96 48 96H16C7.164 96 0 88.84 0 80V48zM0 240C0 231.2 7.164 224 16 224H48C56.84 224 64 231.2 64 240V272C64 280.8 56.84 288 48 288H16C7.164 288 0 280.8 0 272V240zM48 416C56.84 416 64 423.2 64 432V464C64 472.8 56.84 480 48 480H16C7.164 480 0 472.8 0 464V432C0 423.2 7.164 416 16 416H48zM96 144C96 135.2 103.2 128 112 128H144C152.8 128 160 135.2 160 144V176C160 184.8 152.8 192 144 192H112C103.2 192 96 184.8 96 176V144zM144 320C152.8 320 160 327.2 160 336V368C160 376.8 152.8 384 144 384H112C103.2 384 96 376.8 96 368V336C96 327.2 103.2 320 112 320H144zM192 48C192 39.16 199.2 32 208 32H240C248.8 32 256 39.16 256 48V80C256 88.84 248.8 96 240 96H208C199.2 96 192 88.84 192 80V48zM240 224C248.8 224 256 231.2 256 240V272C256 280.8 248.8 288 240 288H208C199.2 288 192 280.8 192 272V240C192 231.2 199.2 224 208 224H240zM192 432C192 423.2 199.2 416 208 416H240C248.8 416 256 423.2 256 432V464C256 472.8 248.8 480 240 480H208C199.2 480 192 472.8 192 464V432zM336 128C344.8 128 352 135.2 352 144V176C352 184.8 344.8 192 336 192H304C295.2 192 288 184.8 288 176V144C288 135.2 295.2 128 304 128H336zM288 336C288 327.2 295.2 320 304 320H336C344.8 320 352 327.2 352 336V368C352 376.8 344.8 384 336 384H304C295.2 384 288 376.8 288 368V336zM432 32C440.8 32 448 39.16 448 48V80C448 88.84 440.8 96 432 96H400C391.2 96 384 88.84 384 80V48C384 39.16 391.2 32 400 32H432zM384 240C384 231.2 391.2 224 400 224H432C440.8 224 448 231.2 448 240V272C448 280.8 440.8 288 432 288H400C391.2 288 384 280.8 384 272V240zM432 416C440.8 416 448 423.2 448 432V464C448 472.8 440.8 480 432 480H400C391.2 480 384 472.8 384 464V432C384 423.2 391.2 416 400 416H432z"/><path class="fa-secondary" d="M96 48C96 39.16 103.2 32 112 32H144C152.8 32 160 39.16 160 48V80C160 88.84 152.8 96 144 96H112C103.2 96 96 88.84 96 80V48zM48 128C56.84 128 64 135.2 64 144V176C64 184.8 56.84 192 48 192H16C7.164 192 0 184.8 0 176V144C0 135.2 7.164 128 16 128H48zM48 320C56.84 320 64 327.2 64 336V368C64 376.8 56.84 384 48 384H16C7.164 384 0 376.8 0 368V336C0 327.2 7.164 320 16 320H48zM144 224C152.8 224 160 231.2 160 240V272C160 280.8 152.8 288 144 288H112C103.2 288 96 280.8 96 272V240C96 231.2 103.2 224 112 224H144zM96 432C96 423.2 103.2 416 112 416H144C152.8 416 160 423.2 160 432V464C160 472.8 152.8 480 144 480H112C103.2 480 96 472.8 96 464V432zM240 128C248.8 128 256 135.2 256 144V176C256 184.8 248.8 192 240 192H208C199.2 192 192 184.8 192 176V144C192 135.2 199.2 128 208 128H240zM192 336C192 327.2 199.2 320 208 320H240C248.8 320 256 327.2 256 336V368C256 376.8 248.8 384 240 384H208C199.2 384 192 376.8 192 368V336zM336 32C344.8 32 352 39.16 352 48V80C352 88.84 344.8 96 336 96H304C295.2 96 288 88.84 288 80V48C288 39.16 295.2 32 304 32H336zM288 240C288 231.2 295.2 224 304 224H336C344.8 224 352 231.2 352 240V272C352 280.8 344.8 288 336 288H304C295.2 288 288 280.8 288 272V240zM336 416C344.8 416 352 423.2 352 432V464C352 472.8 344.8 480 336 480H304C295.2 480 288 472.8 288 464V432C288 423.2 295.2 416 304 416H336zM384 144C384 135.2 391.2 128 400 128H432C440.8 128 448 135.2 448 144V176C448 184.8 440.8 192 432 192H400C391.2 192 384 184.8 384 176V144zM432 320C440.8 320 448 327.2 448 336V368C448 376.8 440.8 384 432 384H400C391.2 384 384 376.8 384 368V336C384 327.2 391.2 320 400 320H432z"/></svg>
